public/images/icon-share-white.svg

<?xml version="1.0" encoding="UTF-8"?>
<svg width="16px" height="18px" viewBox="0 0 16 18" version="1.1" xmlns="http://www.w3.org/2000/svg" xmlns:xlink="http://www.w3.org/1999/xlink">
    <!-- Generator: Sketch 51.1 (57501) - http://www.bohemiancoding.com/sketch -->
    <title>3918 delen 24px</title>
    <desc>Created with Sketch.</desc>
    <defs></defs>
    <g id="A.-Data-[ALL-PAGES]" stroke="none" stroke-width="1" fill="none" fill-rule="evenodd">
        <g id="B.-Data---Dataset---Desktop-[1366px]" transform="translate(-1072.000000, -832.000000)">
            <g id="3918-delen-24px" transform="translate(1070.000000, 831.000000)">
                <g id="box">
                    <rect id="Rectangle-path" x="0" y="0" width="24" height="24"></rect>
                </g>
                <g id="icon" transform="translate(2.000000, 1.000000)" fill="#FFFFFF" fill-rule="nonzero">
                    <path d="M12.8,11.4027149 C12.08,11.4027149 11.36,11.6470588 10.88,12.0542986 L6.4,9.36651584 C6.4,8.95927602 6.4,8.95927602 6.32,8.47058824 L10.8,5.78280543 C11.36,6.27149321 12.08,6.5158371 12.8,6.5158371 C14.56,6.5158371 16,5.04977376 16,3.25791855 C16,1.46606335 14.56,0 12.8,0 C11.04,0 9.6,1.46606335 9.6,3.25791855 C9.6,3.42081448 9.6,3.58371041 9.68,3.74660633 L5.12,6.35294118 C4.64,5.94570136 3.92,5.70135747 3.2,5.70135747 C1.44,5.70135747 0,7.16742081 0,8.95927602 C0,10.7511312 1.44,12.2171946 3.2,12.2171946 C3.92,12.2171946 4.64,11.9728507 5.12,11.5656109 L9.6,14.2533937 C9.6,14.4162896 9.52,14.5791855 9.52,14.7420814 C9.52,16.5339367 10.96,18 12.72,18 C14.48,18 15.92,16.5339367 15.92,14.7420814 C16,12.8687783 14.56,11.4027149 12.8,11.4027149 Z" id="Shape"></path>
                </g>
            </g>
        </g>
    </g>
</svg>

<svg aria-hidden="true" focusable="false" role="img" width="16" height="18" xmlns="http://www.w3.org/2000/svg"><g fill="none"><path d="M-2-1h24v24H-2z"/><path d="M12.8 11.403c-.72 0-1.44.244-1.92.651L6.4 9.367c0-.408 0-.408-.08-.896l4.48-2.688a3.04 3.04 0 0 0 2 .733c1.76 0 3.2-1.466 3.2-3.258S14.56 0 12.8 0c-1.76 0-3.2 1.466-3.2 3.258 0 .163 0 .326.08.489L5.12 6.353C4.64 5.946 3.92 5.7 3.2 5.7 1.44 5.701 0 7.167 0 8.96s1.44 3.258 3.2 3.258c.72 0 1.44-.244 1.92-.651l4.48 2.687c0 .163-.08.326-.08.49 0 1.79 1.44 3.257 3.2 3.257 1.76 0 3.2-1.466 3.2-3.258.08-1.873-1.36-3.34-3.12-3.34z" fill="#FFF"/></g></svg>
